packages/assets/static/images/icons/stairs.svg

<svg width="24" height="24" viewBox="0 0 24 24" xmlns="http://www.w3.org/2000/svg">
<path d="M23.2505 5.25C23.2505 5.44891 23.1715 5.63968 23.0308 5.78033C22.8902 5.92098 22.6994 6 22.5005 6H18.0005V9.75C18.0005 9.94891 17.9215 10.1397 17.7808 10.2803C17.6402 10.421 17.4494 10.5 17.2505 10.5H12.7505V14.25C12.7505 14.4489 12.6715 14.6397 12.5308 14.7803C12.3902 14.921 12.1994 15 12.0005 15H7.50049V18.75C7.50049 18.9489 7.42147 19.1397 7.28082 19.2803C7.14017 19.421 6.9494 19.5 6.75049 19.5H1.50049C1.30158 19.5 1.11081 19.421 0.970158 19.2803C0.829506 19.1397 0.750488 18.9489 0.750488 18.75C0.750488 18.5511 0.829506 18.3603 0.970158 18.2197C1.11081 18.079 1.30158 18 1.50049 18H6.00049V14.25C6.00049 14.0511 6.07951 13.8603 6.22016 13.7197C6.36081 13.579 6.55158 13.5 6.75049 13.5H11.2505V9.75C11.2505 9.55109 11.3295 9.36032 11.4702 9.21967C11.6108 9.07902 11.8016 9 12.0005 9H16.5005V5.25C16.5005 5.05109 16.5795 4.86032 16.7202 4.71967C16.8608 4.57902 17.0516 4.5 17.2505 4.5H22.5005C22.6994 4.5 22.8902 4.57902 23.0308 4.71967C23.1715 4.86032 23.2505 5.05109 23.2505 5.25Z"/>
</svg>

<svg viewBox="0 0 24 24" xmlns="http://www.w3.org/2000/svg" aria-hidden="true" fill="currentColor"><path d="M23.25 5.25a.75.75 0 0 1-.75.75H18v3.75a.75.75 0 0 1-.75.75h-4.5v3.75A.75.75 0 0 1 12 15H7.5v3.75a.75.75 0 0 1-.75.75H1.5a.75.75 0 1 1 0-1.5H6v-3.75a.75.75 0 0 1 .75-.75h4.5V9.75A.75.75 0 0 1 12 9h4.5V5.25a.75.75 0 0 1 .75-.75h5.25a.75.75 0 0 1 .75.75"/></svg>
